X: 747
T: Ferahfezâ Peşrev
C: Tanburî Cemil Bey
O: Turkey
F: http://compmusic.upf.edu/node/140
N: ferahfeza--pesrev--muhammes----tanburi_cemil_bey
N: makam= ferahfeza
N: form= pesrev
N: usul= muhammes = 32/4
M: 32/4
L: 1/16
K: C _B   
Q: 1/4=72
%%MIDI tuningsystem comma53
c4 f8 e4  | f2 e2 a2 g f f4 z4  | f2 g2 f2 e2 a4 g2 f2  | \
w:  1. HANE  |   |   | 
f2 e4 d2 e3 d c4  | 
w:   | 
z4 d2 e2 d2 e2 d2 c2  | d2 e2 f2 g2 a3 g f2 g2  | \
w:   |   | 
e4 f4 f2 g2 f e d2  | 
w:   | 
e2 f2 e d c2 d2 e2 d c _1/4B2  | c4 d4 d6 e2  | \
w:   |   | 
d2 c _1/4B A4 e2 f6  | f6 e2 e3 f e f e d  | 
w:   |   | 
d2 a2 g2 f2 e3 d c4  | z4 _1/4B2 c2 d2 f2 e2 d2  | \
w:   |   | 
z2 c4 d2 c _1/4B A2 B2 c2  | 
w:   | 
_1/4B4 c2 d2 c4 d4  | c3 _e d2 c2 B2 c2 A4  | \
w:   |   | 
A2 B2 c2 _e2 d2 c2 B2 A2  | G4 c2 _1/4B c d4 _B2 A B  | 
w:  TESLİM  |   | 
c4 A2 G A B4 G2 F G  | A2 G B A2 G2 F3 E D4  | \
w:   |   | 
z4 E2 F2 G3 B A2 G2  | 
w:   | 
F3 E D4 G2 F2 E2 D2  | ^C4 D4 D4 a4  | \
w:   |  2. HANE  | 
g3 f e2 g2 f8  | c4 d8 e2 f2  | g2 e4 d2 d2 c2 g f e d  | 
w:   |   |   | 
c4 d4 d2 e2 d2 c2  | d2 e4 e d e d c _1/4B c4  | \
w:   |   | 
f3 e f2 g a g f e4 f g  | 
w:   | 
f e d4 e f e d c2 d2 e2  | d3 c _1/4B2 c2 d2 f2 e2 d2  | \
w:   |   | 
c4 d4 d8  | 
w:   | 
d3 e f2 g2 e2 f2 g2 a2  | a2 g2 f2 e2 e3 d c4  | \
w:   |   | 
d3 e f2 g2 e2 f2 d2 e2  | 
w:   | 
z2 c4 d e d c _1/4B A B2 c2  | _1/4B4 B2 c2 d4 e4  | \
w:   |   | 
d2 c4 _1/4B2 d2 c B g ^f _7/8e d  | 
w:   | 
d2 c4 _1/4B2 B2 A6  | A2 c4 B A A8  | \
w:   |   | 
A2 B2 c2 _e2 d2 c2 B2 A2  | G4 c2 _1/4B c d4 _B2 A B  | 
w:  TESLİM  |   | 
c4 A2 G A B4 G2 F G  | A2 G B A2 G2 F3 E D4  | \
w:   |   | 
z4 E2 F2 G3 B A2 G2  | 
w:   | 
F3 E D4 G2 F2 E2 D2  | ^C4 D4 D4 g2 b2  | \
w:   |  3. HANE  | 
a2 g2 f2 g2 a8  | g4 a4 a6 g2  | 
w:   |   | 
c'3 _1/4b d'3 b a4 z4  | c'2 _1/4b2 c'2 d'2 e'2 d'2 c'2 _b2  | \
w:   |   | 
a4 g4 f3 e a g f e  | 
w:   | 
d4 a2 b2 a4 g4  | f3 e d2 e2 f2 g4 f e  | \
w:   |   | 
d2 a4 g f f3 e e d d ^c  | 
w:   | 
d6 b2 a8  | d4 a8 g2 a2  | b2 c'2 b2 a2 b3 a g4  | \
w:   |   |   | 
z4 c2 g2 g6 f2  | a3 g g f f e f8  | 
w:   |   | 
z4 c2 f2 f3 e a3 g  | g2 f2 e2 d2 c3 B A2 B2  | \
w:   |   | 
c2 d _e d2 c2 B3 A G2 B2  | 
w:   | 
A6 d2 c _e d c B A G2  | A2 B2 c2 _e2 d2 c2 B2 A2  | \
w:   |  TESLİM  | 
G4 c2 _1/4B c d4 _B2 A B  | 
w:   | 
c4 A2 G A B4 G2 F G  | A2 G B A2 G2 F3 E D4  | \
w:   |   | 
z4 E2 F2 G3 B A2 G2  | 
w:   | 
F3 E D4 G2 F2 E2 D2  | ^C4 D4 D4 A4  | \
w:   |  4. HANE  | 
(3_7/8B2A2B2 (3^c2B2c2 d8  | d2 e2 f2 e2 f2 e2 f2 g2  | 
w:   |   | 
f4 e2 f2 e4 d4  | f3 e d2 e2 ^c4 d2 e2  | \
w:   |   | 
d2 e8-e2 z4  | e2 ^f2 g2 f2 g2 f2 g2 b2  | 
w:   |   | 
a4 g4 f4 e2 f2  | a2 g2 f2 e2 e2 d2 d2 ^c2  | \
w:   |   | 
z2 d4 b2 a3 ^g f g a b  | 
w:   | 
^g2 a4 g f f6 e d  | d8 e3 d ^c d e f  | \
w:   |   | 
d2 e4 d ^c _7/8B A G2 e f e d  | 
w:   | 
e d ^c4 _7/8B2 e d c B A4  | a3 g b3 a g3 f a4  | \
w:   |   | 
f3 e d2 e2 f2 g2 f2 e2  | 
w:   | 
d2 ^c4 _7/8B2 B2 A2 e2 d c  | ^c3 _7/8B c B B A A8  | \
w:   |   | 
A2 B2 c2 _e2 d2 c2 B2 A2  | 
w:  TESLİM  | 
G4 c2 _1/4B c d4 _B2 A B  | c4 A2 G A B4 G2 F G  | \
w:   |   | 
A2 G B A2 G2 F3 E D4  | 
w:   | 
z4 E2 F2 G3 B A2 G2  | F3 E D4 G2 F2 E2 D2  | \
w:   |   | 
^C4 D4 D8  | D8 z8  | |


